X:1
T:Title
%%score 1 2
L:1/8
Q:1/4=117
M:3/4
K:Eb
V:1 treble nm="Grand Piano, Soprano"
V:2 bass nm="Choir Pad, I Can’t Tell It All"
V:1
 B,B, B,2 [B,E]2 | [B,F]2 [EG]4 | [EG][Ec] [EB]2 [B,E]2 | [B,F]2 [EG]4 | [FA][EG] [DF]2 [DF]2 | %5
w: By~Lelia~Naylor~Morris,~1896 * * *|||||
 [EG]2 [DA]2 [DB]2 | [Dc]2 [EB]4- | [EB]2 [EG]4 | B,B, B,2 [B,E]2 | [B,F]2 [EG]4 | %10
w: |||||
 [EG][Ec] [EB]2 [B,E]2 | [B,F]2 [EG]4 | [FA][EG] [DF]2 [DF]2 | [EG]2 [E=A]2 [Fd]2- | %14
w: ||||
 [Fd][Ec] [Ec]4- | [Ec]2 [DB]4 | [DB][DB] [DB]2 [DF]2- | [DF][EG] [DA]4 | [DB][Dc] [EB]2 E2- | %19
w: |||||
 E[DF] [EG]4 | [FA][EG] [DF]2 [DF]2 | [EG]2 [E=A]2 [Fd]2- | [Fd][Ec] [Ec]4- | [Ec]2 [DB]4 | %24
w: |||||
 [AB][AB] [Ge]2 [EG]2 | [Ac]2 [GB]4 | [EG][EG] [EG]2 [DA]2 | [EB]2 [Ac]4 | [_Gc][Gc] [=GB]2 [Ge]2 | %29
w: |||||
 EF [EG]3 [EG] | [B,E]2 [DF]4- | [DF]2 E4- | E4 z2 |] %33
w: ||||
V:2
 [E,G,][E,G,] [E,G,]2 [E,G,]2 | [E,A,]2 [E,B,]4 | [E,B,][E,A,] [E,G,]2 [E,G,]2 | [E,A,]2 [E,B,]4 | %4
 [D,B,][E,B,] [B,,B,]2 [B,,B,]2 | [B,,B,]2 [B,,B,]2 [B,,B,]2 | [B,,B,]2 [E,G,]4- | %7
 [E,G,]2 [E,B,]4 | [E,G,][E,G,] [E,G,]2 [E,G,]2 | [E,A,]2 [E,B,]4 | [E,B,][E,A,] [E,G,]2 [E,G,]2 | %11
 [E,A,]2 [E,B,]4 | [D,B,][E,B,] [F,B,]2 [F,B,]2 | [F,B,]2 [F,C]2 [F,B,]2- | %14
 [F,B,][F,=A,] [F,A,]4- | [F,A,]2 [B,,B,]4 | [B,,F,][B,,F,] [B,,B,]2 [A,B,]2- | %17
 [A,B,][G,B,] [F,B,]4 | [B,,A,][B,,A,] [E,G,]2 [G,B,]2- | [G,B,][F,B,] [E,B,]4 | %20
 [D,B,][E,B,] [F,B,]2 [F,B,]2 | [F,B,]2 [F,C]2 [F,B,]2- | [F,B,][F,=A,] [F,A,]4- | %23
 [F,A,]2 [B,,B,]4 | B,B, [E,B,]2 [E,B,]2 | [E,E]2 [E,E]4 | [E,B,][E,B,] [E,B,]2 [F,B,]2 | %27
 [G,B,]2 [A,E]4 | [=A,E][A,E] [B,E]2 B,2 | [C,=A,]2 [B,,B,]3 [B,,B,] | [B,,G,]2 [B,,A,]4- | %31
 [B,,A,]2 [E,G,]4- | [E,G,]4 z2 |] %33

